X:1

T:White Creek

M:C

L:1/8

R:Reel

S:Tom Sauber

N:AEae tuning

N:From a transcription by John Lamancusa, by permission http://www.mne.psu.edu/lamancusa/tunes.htm

Z:AK/Fiddler’s Companion

K:A

(A2|:[A,2A2)] ((3efga2) (f2|e2(c2)c2) (A2|A2) ((3efg a2)f2|(ec)Ac e3(f|

e2)(A2A2) ((3efg|a2)f2 (ec)Ac|e3 ((e e)f)ec|B2G2A3(B|1

M:2/4

L:1/8

A2)A2:|2 A2 (AB||

M:C

L:1/8

c2[c2e2] cdec|d2 [d2f2] ddfd|c2[c2e2] cdec|B2 Bc B2AB|c2[c2e2] cdec|

d2[d2f2] ddfd|efec B2G2|1 A3(B A2 AB:|2 A3 (B A4||

 

WHITE CROW, THE. AKA‑ "Time To Go." Canadian, Reel. Canada, Cape Breton. C Major. Standard tuning. ABCD (more often played as a two‑part reel). David MacIssac, learned from the playing of Donald MacLellan (Cape Breton), who believes he obtained the tune from one of the mid-19th century collections published by Elias Howe [Dunlay and Reich]. Dunlay & Greenberg (Traditional Celtic Violin Music from Cape Breton), 1996; pg. 67. Dunlay & Reich (Traditional Celtic Fiddle Music from Cape Breton), 1986; pg. 67. UCCBP 1007 (University College of Cape Breton), David MacIssac‑ "Celtic Music of Cape Breton, Vol. 1" (Various artists). Decca 14006 (78 RPM), Alex Gillis and Alcide Aucoin/The Inverness Serenaders (c. 1930's. Appears as "Time To Go"). Cape Breton's Magazine Tape, Mike MacDougall‑ "Mike MacDougall's Tape For Fr. Hector.” WMT002, Wendy MacIsaac – “That’s What You Get” (1997?).

 

WHITE FEATHER, THE. American, Reel. USA, southwestern Pa. G Major. Standard tuning. ABB'. Source for notated version: Levi Hall (elderly fiddler from Fayette County, Pa., 1944) [Bayard]. Bayard (Dance to the Fiddle), 1981; No. 111, pg. 63.

 


WHITE FISH IN THE RAPIDS. American, Reel. USA, northern Michigan. B Flat Major. Standard tuning. AABB. Old-Time. Paul Gifford remarks that this tune was supposedly written by Henry Thorne (1841-1928), “a part-Indian Civil War veteran who played for Henry Ford….around Sault Ste. Marie, Michigan, it was the real ‘local’ tune.” Paul also remarks that the Native Americans around the St. Mary’s River depended on the whitefish on the rapids. See also the closely related tunes "Good for the Tongue" and "Jenkins' Hornpipe." Source for notated version: Wendy Kosocoff [Phillips]. Phillips (Traditional American Fiddle Tunes), vol. 1, 1994; pg. 255.

                       

WHITE FLAIL, THE (An Suirtin Ban). Irish, Air (4/4 time). G Major. Standard tuning. One part. Source for notated version: blind fiddler Michael Daffy (Co. Clare, Ireland) [Darley & McCall]. Darley & McCall (Darley & McCall Collection of Traditional Irish Music), 1914; No. 10, pg. 4.

                       

WHITE FOLKS DON'T TREAT ME RIGHT. AKA and see "Poor White Folks." Old-Time, Breakdown. A Major. AEae tuning. AABB. Source for notated version: fiddler Kenny Baker with Bill Monroe and the Blue Grass Boys (Ky.) [Phillips]. Phillips (Traditional American Fiddle Tunes), vol. 1, 1994; pg. 256.

                                      

WHITE FRIAR’S HORNPIPE. English, Hornpipe. G Major. Standard tuning. AABB. The melody appears in Walsh’s third collection of Lancashire tunes (Lancashire Jiggs, Hornpipes, Joaks, etc.) published around the year 1730. The White Friars were the Carmelites, so-called because the dressed in white.

